packages/sources/icons/src/vitamix/calendar-check-line.svg

<svg width="16" height="16" viewBox="0 0 16 16" xmlns="http://www.w3.org/2000/svg"><path fill-rule="evenodd" clip-rule="evenodd" d="M6.00016 2.66671V1.33337H4.66683V2.66671H2.00016C1.63197 2.66671 1.3335 2.96518 1.3335 3.33337V14C1.3335 14.3682 1.63197 14.6667 2.00016 14.6667H14.0002C14.3684 14.6667 14.6668 14.3682 14.6668 14V3.33337C14.6668 2.96518 14.3684 2.66671 14.0002 2.66671H11.3335V1.33337H10.0002V2.66671H6.00016ZM2.66699 7.33337H13.3337V13.3334H2.66699V7.33337ZM10.0242 8.09071L10.0245 8.09104L7.66754 10.448L6.25354 9.03338L5.30954 9.97604L7.66687 12.3334L10.9669 9.03338L10.0245 8.09104L10.0249 8.09071H10.0242ZM2.66699 4H4.66699V4.66667H6.00033V4H10.0003V4.66667H11.3337V4H13.3337V6H2.66699V4Z"/></svg>

<svg width="16" height="16" xmlns="http://www.w3.org/2000/svg"><path fill-rule="evenodd" clip-rule="evenodd" d="M6 2.667V1.333H4.667v1.334H2a.667.667 0 0 0-.667.666V14c0 .368.299.667.667.667h12a.667.667 0 0 0 .667-.667V3.333A.667.667 0 0 0 14 2.667h-2.667V1.333H10v1.334H6ZM2.667 7.333h10.666v6H2.667v-6Zm7.357.758-2.357 2.357-1.414-1.415-.944.943 2.358 2.357 3.3-3.3-.943-.942ZM2.667 4h2v.667H6V4h4v.667h1.333V4h2v2H2.667V4Z"/></svg>
